X:24
T:Mathews. ThoH.024
Q:1/4=120
M:C|
L:1/8
B:Thompson's Compleat Collection of 120 Favourite Hornpipes.
Z:Village Music Project, Simon Wilson 2016
O:England.
K:D
d2f2ecA2|B2gBA4|G2eGF2dF|Ecdf ecA2|
d2f2ecA2|B2gBA4|G2eGF2dF|E2c2d4||
dfed g(ed)c|BcdB^A2F2|BcdB egfe|d2Tc2B4|
(^dfa2)(geB2)|bagf g(e^de)|(ceg2)(fdA2)|
agfe f(dcd)|d2f2ecA2|B2gBA4|G2eGF2dF|
Ecdf ecA2|d2f2ecA2|B2gBA4|G2eGF2dF|E2c2d4|]

